src/pos-icons/laptop.svg

<svg height="24" viewBox="0 0 24 24" width="24" xmlns="http://www.w3.org/2000/svg"><path d="m4 6h16v10h-16m16 2a2 2 0 0 0 2-2v-10c0-1.11-.9-2-2-2h-16c-1.11 0-2 .89-2 2v10a2 2 0 0 0 2 2h-4v2h24v-2z"/></svg>

<?xml version="1.0" encoding="UTF-8"?><!DOCTYPE svg PUBLIC "-//W3C//DTD SVG 1.1//EN" "http://www.w3.org/Graphics/SVG/1.1/DTD/svg11.dtd"><svg xmlns="http://www.w3.org/2000/svg" xmlns:xlink="http://www.w3.org/1999/xlink" version="1.1" id="mdi-laptop" width="24" height="24" viewBox="0 0 24 24"><path d="M4,6H20V16H4M20,18A2,2 0 0,0 22,16V6C22,4.89 21.1,4 20,4H4C2.89,4 2,4.89 2,6V16A2,2 0 0,0 4,18H0V20H24V18H20Z" /></svg>
